X:1
T:Pulchra sed ante
T:Daniel Friderici
T:Source : Bicinia sacra---Rostock---J.Richelius---1642. Editor : André Vierendeels (11/07/17).
T:Notes : Original clefs : C1, C1 Editorial accidentals above the staff
T:Pulchra sed ante
T:©
T:©
T:©
C:Daniel Friderici
Z:©
%%score [ 1 2 ]
L:1/8
Q:1/4=120
M:2/2
K:F
V:1 treble nm="Soprano 1" snm="S 1"
V:2 treble nm="Soprano 2" snm="S 2"
V:1
 B4 A4 | G4 D4 | z2 B4 A2 | G4 D4 | z2 d4 A2 | B4 A4 | z2 d4 c2 | B4 A4 | G4 D4 | d2 d2 d2 c2- | %10
w: Pul- chra,|pul- chra,|pul- chra,|pul- chra,|pul- chra|pul- chra,|pul- chra,|pul- chra,|pul- chra,|pul- chra sed an-|
 c2 B2 A3 A | A2 G2 ^F4 | z4 G4 | G2 A3 A A2 | B2 GA B2 c2 | d2 c2 B2 A2 | G2 ^FE F4 | G8 :| %18
w: * te De- um|ni- hil est,|Pha-|ri- sa- ca vir-||||tus:|
"^b" B4 A2 A2 | G3 G F4 | z2 B2 A2 A2 | G3 G ^F4 | z2 G2 A2 A2 | B3 B c4 | d4 z4 | D2 DD E2 G2 | %26
w: Chri- sti ju-|sti- ti- a,|Chri- sti ju-|sti- ti- a,|Chri- sti ju-|sti- ti- a|est,|quae pi- a cor- da|
 ^F4 G4 | A2 AA B2 G2 | ^F4 G4 | A2 AA =B2 d2- | d2 ^c2 d2 G2 | A3 A B2 G2 | D6 DD | E2 G4 ^F2 | %34
w: be- at,|quae pi- a cor- da|be- at,|quae pi- a cor- da|_ be- at, quae|pi- a cor- da,|quae pi- a|cor- da be-|
 G4 A2 AA | BABc d2 cB | A2 A2 G4- | G2 ^FE F4 | G8 |] %39
w: at, quae pi- a|cor- * * * * * *|* da be-||at.|
V:2
 z8 | B4 A4 | G4 D4 | z2 B4 A2 | G4 D4 | z2 d4 c2 | B4 A4 | z2 d4 c2 | B4 A4 | B2 B2 B2 A2- | %10
w: |Pul- chra,|pul- chra,|pul- chra,|pul- chra,|pul- chra,|pul- chra,|pil- chra,|pul- chra,|pul- chra sed an-|
 A2 G2 ^F3 F | ^F2 G2 A4 | z4 B4 | B2 c3 c c2 | d6 c2 | B2 A2 G2 D2 | d8 | =B8 :| z8 | %19
w: * re De- um|ni- hil est,|Pha-|ri- sa- ca vir-||||tus:||
"^b" B4 A2 A2 | G3 G ^F4 | z2 B2 A2 A2 | G3 G ^F4 | z2 G2 A2 A2 | B3 B c4 | d4 z4 | D2 DD E2 G2 | %27
w: Chri- sti ju-|sti- ti- a,|Chri- sti ju-|sti- ti- a,|Chri- sti ju-|sti- ti- a|est,|quae pi- a cor- da|
 ^F4 G4 | A2 AA B2 G2 | ^F4 G4 | A2 AA B2 d2- | d2 ^c2 d4 | z4 d2 dd | c2 B2 A4 | G4 D2 DD | %35
w: be- at,|quae pi- a cor- da|be- at,|quae pi- a- cor- da|_ be- at,|quae pi- a|cor- da be-|at, quae pi- a|
 d3 c B2 AG | F2 D2 d3 c | B2 AG A4 | G8 |] %39
w: cor- * * * *|* da be- *||at.|

